X:1
T:Title
%%score 1 { 2 | 3 }
L:1/8
Q:1/4=94
M:3/4
K:G
V:1 treble nm="Grand Piano, Soprano"
V:2 bass nm="Choir Pad, Bass"
V:3 bass 
V:1
 D>D [DG]3 [DB] | [DG][DB] [Gd]4 | [Ge]>[Ge] [Gd]3 [GB] | G[GB] [FA]4 | D>D [DG]3 [DB] | %5
w: By~Adam~Geibel,~1896 * * *|||||
 [DG][DB] [Gd]4 | [Ge]>[Ge] [Gd]3 [GB] | [FA]<[FA] [DG]4 | [Gd]>[Gd] [Ge]3 [Ge] | [Gd]>[GB] [Gd]4 | %10
w: |||||
 [Gd]>[Gd] [Ge]3 [Gd] | [GB]G [FA]4 | D>D [DG]3 [DB] | [DG][DB] [Gd]4 | [Ge]>[Ge] [Gd]3 [GB] | %15
w: |||||
 [FA]<[FA] [DG]4- | [DG]4 z2 |] %17
w: ||
V:2
 B,>B, B,3 B, | B,B, B,4 | C>C B,3 D | ^CC D4 | C>C[K:bass] B,3 B, | B,B, B,4 | C>C B,3 D | %7
 C<C[K:bass] B,4 | B,>B, C3 C | D>D D4 | B,>B, C3 B, | D^C D4 | C>C[K:bass] B,3 B, | B,B, B,4 | %14
 C>C B,3 D | C<C B,4- | B,4 z2 |] %17
V:3
 G,>G, G,3 G, | G,G, G,4 | G,>G, G,3 G, | A,A, D,4 | D,>D, G,3 G, | G,G, G,4 | C,>C, D,3 D, | %7
 D,<D, G,,4 | G,>G, z2 z2 | B,>G, B,4 | G,>G, C,3 G, | G,A, D,4 | D,>D, G,3 G, | G,G, G,4 | %14
 C,>C, D,3 D, | D,<D, G,,4- | G,,4 z2 |] %17

